build/img/svg/service6.svg

<svg width="44" height="48" viewBox="0 0 44 48" fill="none" xmlns="http://www.w3.org/2000/svg">
<g clip-path="url(#clip0)">
<path d="M43.5945 15.9319C43.341 13.4809 41.5161 10.2638 39.5899 8.78298C39.5899 8.78298 36.6498 6.58723 33 4.44255C29.3502 2.24681 26.0046 0.765957 26.0046 0.765957C24.8894 0.255319 23.4194 0 22 0C20.53 0 19.0599 0.255319 17.9954 0.765957C17.9954 0.765957 14.7005 2.24681 11 4.44255C7.35023 6.6383 4.41014 8.78298 4.41014 8.78298C2.43318 10.2638 0.658986 13.4809 0.40553 15.9319C0.40553 15.9319 0 19.6085 0 24C0 28.3404 0.40553 32.0681 0.40553 32.0681C0.658986 34.5191 2.48387 37.7362 4.41014 39.217C4.41014 39.217 7.35023 41.4128 11 43.6085C14.6498 45.8043 17.9954 47.2851 17.9954 47.2851C19.1106 47.7957 20.5806 48.0511 22 48.0511C23.47 48.0511 24.9401 47.7957 26.0046 47.2851C26.0046 47.2851 29.2995 45.8043 33 43.6085C36.6498 41.4128 39.5899 39.217 39.5899 39.217C41.5668 37.7362 43.341 34.5191 43.5945 32.0681C43.5945 32.0681 44 28.3915 44 24C44 19.6596 43.5945 15.9319 43.5945 15.9319ZM41.5668 31.8128C41.3641 33.7532 39.8433 36.4085 38.3733 37.5319C38.3226 37.5319 35.4839 39.6766 31.9862 41.7702C28.4885 43.8638 25.2442 45.3447 25.1935 45.3447C24.3825 45.7021 23.2166 45.9064 22 45.9064C20.7834 45.9064 19.6175 45.7021 18.8064 45.3447C18.7558 45.3447 15.5622 43.8638 12.0138 41.7702C8.51613 39.6766 5.62673 37.5319 5.62673 37.5319C4.10599 36.4085 2.63594 33.7021 2.43318 31.8128C2.38249 31.8128 2.02765 28.1872 2.02765 24C2.02765 19.8128 2.38249 16.1872 2.38249 16.1872C2.58525 14.2468 4.10599 11.5915 5.57604 10.4681C5.62673 10.4681 8.46544 8.3234 11.9631 6.22979C15.4608 4.13617 18.7051 2.65532 18.7558 2.65532C19.6175 2.24681 20.7834 2.04255 22 2.04255C23.2166 2.04255 24.3825 2.24681 25.1935 2.60426C25.2442 2.60426 28.4378 4.08511 31.9862 6.17872C35.4839 8.27234 38.3733 10.417 38.3733 10.417C39.894 11.5404 41.3641 14.2468 41.5668 16.1362C41.5668 16.1872 41.9217 19.7617 41.9217 23.9489C41.9723 28.1872 41.5668 31.8128 41.5668 31.8128Z" fill="#65B94D"/>
<path d="M11.8111 17.7191H32.189C32.4425 17.7191 32.6959 17.9744 32.6959 18.2298V32.2723C32.6959 32.5276 32.4425 32.7829 32.189 32.7829H11.8111C11.5577 32.7829 11.3042 32.5276 11.3042 32.2723V18.2298C11.3042 17.9234 11.507 17.7191 11.8111 17.7191Z" stroke="#62B84D" stroke-width="2" stroke-miterlimit="10" stroke-linecap="round" stroke-linejoin="round"/>
<path d="M18.401 12.2042H25.5991C25.9033 12.2042 26.106 12.4085 26.106 12.7149V17.2085C26.106 17.4638 25.9033 17.7191 25.5991 17.7191H18.401C18.1475 17.7191 17.894 17.4638 17.894 17.2085V12.7149C17.894 12.4085 18.0968 12.2042 18.401 12.2042Z" stroke="#62B84D" stroke-width="2" stroke-miterlimit="10" stroke-linecap="round" stroke-linejoin="round"/>
<path d="M24.3315 26.5532H31.6818" stroke="#62B84D" stroke-width="2" stroke-miterlimit="10" stroke-linecap="round" stroke-linejoin="round"/>
<path d="M11.9126 26.5532H19.6684" stroke="#62B84D" stroke-width="2" stroke-miterlimit="10" stroke-linecap="round" stroke-linejoin="round"/>
<path d="M20.1754 24.766H23.8251C24.1293 24.766 24.332 25.0213 24.332 25.2766V28.2894C24.332 28.5447 24.1293 28.8 23.8251 28.8H20.1754C19.9219 28.8 19.6685 28.5447 19.6685 28.2894V25.2766C19.6685 25.0213 19.8712 24.766 20.1754 24.766Z" stroke="#62B84D" stroke-width="2" stroke-miterlimit="10" stroke-linecap="round" stroke-linejoin="round"/>
</g>
<defs>
<clipPath id="clip0">
<rect width="44" height="48" fill="white"/>
</clipPath>
</defs>
</svg>

<svg width="44" height="48" fill="none" xmlns="http://www.w3.org/2000/svg"><g clip-path="url(#clip0)"><path d="M43.594 15.932c-.253-2.451-2.078-5.668-4.004-7.149 0 0-2.94-2.196-6.59-4.34C29.35 2.247 26.005.766 26.005.766 24.889.256 23.419 0 22 0c-1.47 0-2.94.255-4.005.766 0 0-3.295 1.48-6.995 3.677-3.65 2.195-6.59 4.34-6.59 4.34-1.977 1.48-3.75 4.698-4.004 7.149 0 0-.406 3.676-.406 8.068 0 4.34.406 8.068.406 8.068.253 2.451 2.078 5.668 4.004 7.149 0 0 2.94 2.196 6.59 4.392a71.16 71.16 0 006.995 3.676c1.116.51 2.586.766 4.005.766 1.47 0 2.94-.255 4.005-.766 0 0 3.294-1.48 6.995-3.676a88.995 88.995 0 006.59-4.392c1.977-1.48 3.751-4.698 4.004-7.149 0 0 .406-3.676.406-8.068 0-4.34-.406-8.068-.406-8.068zm-2.027 15.88c-.203 1.941-1.724 4.596-3.194 5.72-.05 0-2.89 2.145-6.387 4.238-3.498 2.094-6.742 3.575-6.793 3.575-.81.357-1.976.561-3.193.561s-2.383-.204-3.194-.561c-.05 0-3.244-1.481-6.792-3.575-3.498-2.093-6.387-4.238-6.387-4.238-1.521-1.123-2.991-3.83-3.194-5.72-.05 0-.405-3.625-.405-7.812s.354-7.813.354-7.813c.203-1.94 1.724-4.596 3.194-5.719.05 0 2.89-2.145 6.387-4.238 3.498-2.094 6.742-3.575 6.793-3.575.861-.408 2.027-.612 3.244-.612s2.383.204 3.194.561c.05 0 3.244 1.481 6.792 3.575a87.03 87.03 0 016.387 4.238c1.521 1.123 2.991 3.83 3.194 5.72 0 .05.355 3.625.355 7.812.05 4.238-.355 7.864-.355 7.864z" fill="#65B94D"/><path d="M11.811 17.72H32.19c.254 0 .507.254.507.51v14.042c0 .256-.253.51-.507.51H11.811c-.253 0-.507-.254-.507-.51V18.23c0-.307.203-.51.507-.51zm6.59-5.516h7.198c.304 0 .507.204.507.51v4.495a.51.51 0 01-.507.51h-7.198c-.253 0-.507-.255-.507-.51v-4.494c0-.306.203-.51.507-.51zm5.93 14.349h7.35m-19.768 0h7.755" stroke="#62B84D" stroke-width="2" stroke-miterlimit="10" stroke-linecap="round" stroke-linejoin="round"/><path d="M20.175 24.766h3.65a.51.51 0 01.507.51v3.013a.51.51 0 01-.507.511h-3.65c-.253 0-.506-.255-.506-.51v-3.013a.51.51 0 01.506-.511z" stroke="#62B84D" stroke-width="2" stroke-miterlimit="10" stroke-linecap="round" stroke-linejoin="round"/></g><defs><clipPath id="clip0"><path fill="#fff" d="M0 0h44v48H0z"/></clipPath></defs></svg>
